!! 00000] TT[WS
!!!OTL: Fang yang
!!!ARE: Asia, China,ÿShanxi Dingxiang
!! Ethnic Group: Han
!! WI, 51 (1)
!!!SCT: J0054
!!!YEM: Copyright 1995, estate of Helmut Schaffrath.
**kern
*ICvox
*Ivox
*M2/4
*k[f#]
*G:
{8dd
16dd
16ee
4dd
=1
8ee
16b
16a
4g
=2
8a
16a
16b
8dd
8g
=3
8.a
16b
16a
16g
8e
=4
4d}
{8g
16g
16a
=5
8g
8a
8e
8d
=6
4dd
8cc
16cc
16b
=7
8dd
8g
8.a
16b
=8
16a
16g
8e
4d}
==
!!!AGN: Xiaodiao. Laodong, Fangyang
!!!ONB: ESAC (Essen Associative Code) Database: CHINA
!!!AMT: simple duple
!!!AIN: vox
!!!EED: Helmut Schaffrath
!!!EEV: 1.0
*-
